src/assets/icons/ftic/people-3.svg

<?xml version="1.0" encoding="UTF-8"?>
<svg width="32px" height="35px" viewBox="0 0 32 35" version="1.1" xmlns="http://www.w3.org/2000/svg" xmlns:xlink="http://www.w3.org/1999/xlink">
    <!-- Generator: Sketch 47.1 (45422) - http://www.bohemiancoding.com/sketch -->
    <title>Group</title>
    <desc>Created with Sketch.</desc>
    <defs>
        <circle id="path-1" cx="6" cy="3" r="3"></circle>
        <path d="M8.29508197,9 C6.7442623,9 6.02295082,9 5.69836066,9 C5.69836066,9 5.66229508,9 5.40983607,9 C5.04918033,9 4.32786885,9 2.74098361,9 C0.0360655738,9 0,12.0327613 0,12.0327613 L0,21.2808112 L2.0557377,21.2808112 L2.0557377,33 L5.40983607,33 L5.69836066,33 L8.98032787,33 L8.98032787,21.2808112 L11,21.2808112 L11,12.0327613 C10.9639344,12.0327613 10.9639344,9 8.29508197,9 Z" id="path-2"></path>
    </defs>
    <g id="DESIGNS" stroke="none" stroke-width="1" fill="none" fill-rule="evenodd">
        <g id="Home--aantal-Personen" transform="translate(-324.000000, -551.000000)" fill-rule="nonzero">
            <g id="3" transform="translate(292.000000, 525.000000)">
                <g id="Group" transform="translate(32.000000, 27.000000)">
                    <g id="Men-Copy-6" fill="#333E48">
                        <ellipse id="Oval" cx="6" cy="3.51460674" rx="3.1125" ry="3.17078652"></ellipse>
                        <path d="M8.925,9.16853933 C7.3125,9.16853933 6.5625,9.16853933 6.225,9.16853933 C6.225,9.16853933 6.1875,9.16853933 5.925,9.16853933 C5.55,9.16853933 4.8,9.16853933 3.15,9.16853933 C0.3375,9.16853933 0.3,12.2629213 0.3,12.2629213 L0.3,21.6988764 L2.4375,21.6988764 L2.4375,33.6561798 L5.925,33.6561798 L6.225,33.6561798 L9.6375,33.6561798 L9.6375,21.6988764 L11.7375,21.6988764 L11.7375,12.2629213 C11.7,12.2629213 11.7,9.16853933 8.925,9.16853933 Z" id="Shape"></path>
                    </g>
                    <g id="Men-Copy-4" transform="translate(20.000000, 0.000000)" fill="#333E48">
                        <ellipse id="Oval" cx="6" cy="3.51460674" rx="3.1125" ry="3.17078652"></ellipse>
                        <path d="M8.925,9.16853933 C7.3125,9.16853933 6.5625,9.16853933 6.225,9.16853933 C6.225,9.16853933 6.1875,9.16853933 5.925,9.16853933 C5.55,9.16853933 4.8,9.16853933 3.15,9.16853933 C0.3375,9.16853933 0.3,12.2629213 0.3,12.2629213 L0.3,21.6988764 L2.4375,21.6988764 L2.4375,33.6561798 L5.925,33.6561798 L6.225,33.6561798 L9.6375,33.6561798 L9.6375,21.6988764 L11.7375,21.6988764 L11.7375,12.2629213 C11.7,12.2629213 11.7,9.16853933 8.925,9.16853933 Z" id="Shape"></path>
                    </g>
                    <g id="Men-Copy-3" transform="translate(10.000000, 0.000000)">
                        <g id="Oval">
                            <use fill="#333E48" fill-rule="evenodd" xlink:href="#path-1"></use>
                            <circle stroke="#FFFFFF" stroke-width="1" cx="6" cy="3" r="3.5"></circle>
                        </g>
                        <g id="Shape">
                            <use fill="#333E48" fill-rule="evenodd" xlink:href="#path-2"></use>
                            <path stroke="#FFFFFF" stroke-width="1" d="M11.4443182,11.5327613 L11.5,11.5327613 L11.5,21.7808112 L9.48032787,21.7808112 L9.48032787,33.5 L1.5557377,33.5 L1.5557377,21.7808112 L-0.5,21.7808112 L-0.5,21.2808112 L-0.499964649,12.0268157 C-0.49469975,11.5840893 -0.393229614,10.9520416 -0.0984694892,10.308238 C0.412061712,9.19315566 1.34764241,8.5 2.74098361,8.5 L8.29508197,8.5 C9.6748857,8.5 10.5927062,9.19427024 11.0914864,10.3127376 C11.2510148,10.670465 11.381877,11.1960058 11.4443182,11.5327613 Z"></path>
                        </g>
                    </g>
                </g>
            </g>
        </g>
    </g>
</svg>

<svg xmlns="http://www.w3.org/2000/svg" xmlns:xlink="http://www.w3.org/1999/xlink" viewBox="0 0 32 35"><defs><circle id="a" cx="6" cy="3" r="3"/><path id="b" d="M8.295 9H2.741C.036 9 0 12.033 0 12.033v9.248h2.056V33H8.98V21.28H11v-9.247c-.036 0-.036-3.033-2.705-3.033z"/></defs><g transform="translate(0 1)"><ellipse cx="6" cy="3.515" rx="3.112" ry="3.171"/><path d="M8.925 9.169H3.15C.337 9.169.3 12.263.3 12.263v9.436h2.138v11.957h7.199V21.7h2.1v-9.436c-.037 0-.037-3.094-2.812-3.094z"/></g><g transform="translate(20 1)"><ellipse cx="6" cy="3.515" rx="3.112" ry="3.171"/><path d="M8.925 9.169H3.15C.337 9.169.3 12.263.3 12.263v9.436h2.138v11.957h7.199V21.7h2.1v-9.436c-.037 0-.037-3.094-2.812-3.094z"/></g><g transform="translate(10 1)"><use xlink:href="#a"/><circle cx="6" cy="3" r="3.5"/></g><g transform="translate(10 1)"><use xlink:href="#b"/><path d="M11.444 11.533h.056V21.78H9.48V33.5H1.556V21.78H-.5v-9.753a4.387 4.387 0 0 1 .402-1.719C.412 9.193 1.348 8.5 2.74 8.5h5.554c1.38 0 2.298.694 2.796 1.813.16.357.29.883.353 1.22z"/></g></svg>
